src/24x24/places/folder-gruvbox-mix-purple-pcloud.svg

<svg xmlns="http://www.w3.org/2000/svg" width="24" height="24" version="1">
 <rect style="opacity:0.2" width="20" height="12" x="2" y="9.5" rx="1" ry="1"/>
 <path style="fill:#924f79" d="M 2,17 C 2,17.554 2.446,18 3,18 H 21 C 21.554,18 22,17.554 22,17 V 6 C 22,5.446 21.554,5 21,5 H 12 C 10.5,5 10,3 8.5,3 H 3 C 2.446,3 2,3.446 2,4"/>
 <rect style="opacity:0.2" width="20" height="12" x="2" y="8.5" rx="1" ry="1"/>
 <rect style="fill:#E6DCBB" width="16" height="8" x="4" y="7" rx="1" ry="1"/>
 <rect style="fill:#d3869b" width="20" height="12" x="2" y="9" rx="1" ry="1"/>
 <path style="opacity:0.1;fill:#E6DCBB" d="M 3,3 C 2.446,3 2,3.446 2,4 V 4.5 C 2,3.946 2.446,3.5 3,3.5 H 8.5 C 10,3.5 10.5,5.5 12,5.5 H 21 C 21.554,5.5 22,5.946 22,6.5 V 6 C 22,5.446 21.554,5 21,5 H 12 C 10.5,5 10,3 8.5,3 Z"/>
 <path style="fill:#423B3A" d="M 11.818359 11 A 3.6363636 3.6363636 0 0 0 8.4707031 13.216797 A 2.9090909 2.9090909 0 0 0 6 16.091797 A 2.9090909 2.9090909 0 0 0 8.7695312 18.992188 L 8.7695312 19 L 15.835938 19 A 1.8008658 1.8008658 0 0 0 16.041016 18.986328 A 1.75 1.75 0 0 0 16.25 19 A 1.75 1.75 0 0 0 18 17.25 A 1.75 1.75 0 0 0 16.804688 15.591797 A 1.8181818 1.8181818 0 0 0 16.908203 15 A 1.8181818 1.8181818 0 0 0 15.148438 13.185547 A 3.6363636 3.6363636 0 0 0 11.818359 11 z M 10 13 L 11 13 L 12.910156 13 L 12.910156 16 L 11 16 L 11 17.5 L 10 17.5 L 10 16 L 10 13 z M 11 14 L 11 15 L 12 15 L 12 14 L 11 14 z"/>
</svg>

<?xml version="1.0" encoding="UTF-8"?>
<svg width="24" height="24" version="1" xmlns="http://www.w3.org/2000/svg">
 <rect x="2" y="9.5" width="20" height="12" rx="1" ry="1" opacity=".2"/>
 <path d="m2 17c0 0.554 0.446 1 1 1h18c0.554 0 1-0.446 1-1v-11c0-0.554-0.446-1-1-1h-9c-1.5 0-2-2-3.5-2h-5.5c-0.554 0-1 0.446-1 1" fill="#924f79"/>
 <rect x="2" y="8.5" width="20" height="12" rx="1" ry="1" opacity=".2"/>
 <rect x="4" y="7" width="16" height="8" rx="1" ry="1" fill="#E6DCBB"/>
 <rect x="2" y="9" width="20" height="12" rx="1" ry="1" fill="#d3869b"/>
 <path d="m3 3c-0.554 0-1 0.446-1 1v0.5c0-0.554 0.446-1 1-1h5.5c1.5 0 2 2 3.5 2h9c0.554 0 1 0.446 1 1v-0.5c0-0.554-0.446-1-1-1h-9c-1.5 0-2-2-3.5-2z" fill="#E6DCBB" opacity=".1"/>
 <path d="m11.818 11a3.6364 3.6364 0 0 0-3.3477 2.2168 2.9091 2.9091 0 0 0-2.4707 2.875 2.9091 2.9091 0 0 0 2.7695 2.9004v0.007812h7.0664a1.8009 1.8009 0 0 0 0.20508-0.013672 1.75 1.75 0 0 0 0.20898 0.013672 1.75 1.75 0 0 0 1.75-1.75 1.75 1.75 0 0 0-1.1953-1.6582 1.8182 1.8182 0 0 0 0.10352-0.5918 1.8182 1.8182 0 0 0-1.7598-1.8145 3.6364 3.6364 0 0 0-3.3301-2.1855zm-1.8184 2h1 1.9102v3h-1.9102v1.5h-1v-1.5-3zm1 1v1h1v-1h-1z" fill="#423B3A"/>
</svg>
